icons/hash-16.svg

<svg width="16" height="16" viewBox="0 0 16 16" fill="none" xmlns="http://www.w3.org/2000/svg">
<path fill-rule="evenodd" clip-rule="evenodd" d="M6.36849 1.00953C6.7775 1.07497 7.05602 1.45959 6.99058 1.8686L6.56956 4.5H10.5505L11.0094 1.63162C11.0749 1.22261 11.4595 0.944089 11.8685 1.00953C12.2775 1.07497 12.556 1.45959 12.4906 1.8686L12.0696 4.5H14.25C14.6642 4.5 15 4.83579 15 5.25C15 5.66421 14.6642 6 14.25 6H11.8296L11.1896 10H13.75C14.1642 10 14.5 10.3358 14.5 10.75C14.5 11.1642 14.1642 11.5 13.75 11.5H10.9496L10.4906 14.3686C10.4251 14.7776 10.0405 15.0561 9.63151 14.9907C9.2225 14.9253 8.94398 14.5406 9.00942 14.1316L9.43048 11.5H5.44956L4.99058 14.3686C4.92514 14.7776 4.54052 15.0561 4.13151 14.9907C3.7225 14.9253 3.44398 14.5406 3.50942 14.1316L3.93048 11.5H1.75C1.33579 11.5 1 11.1642 1 10.75C1 10.3358 1.33579 10 1.75 10H4.17048L4.81048 6H2.25C1.83579 6 1.5 5.66421 1.5 5.25C1.5 4.83579 1.83579 4.5 2.25 4.5H5.05048L5.50942 1.63162C5.57486 1.22261 5.95948 0.944089 6.36849 1.00953ZM9.67048 10L10.3105 6H6.32956L5.68956 10H9.67048Z" fill="#24292E"/>
</svg>

<svg xmlns="http://www.w3.org/2000/svg" width="16" height="16" viewBox="0 0 16 16"><path fill-rule="evenodd" d="M6.368 1.01a.75.75 0 01.623.858L6.57 4.5h3.98l.46-2.869a.75.75 0 011.48.237L12.07 4.5h2.18a.75.75 0 010 1.5h-2.42l-.64 4h3.06a.75.75 0 010 1.5h-3.3l-.46 2.868a.75.75 0 01-1.48-.236l.42-2.632H5.45l-.46 2.868a.75.75 0 01-1.48-.236l.42-2.632H1.75a.75.75 0 010-1.5h2.42l.64-4H1.75a.75.75 0 010-1.5h3.3l.46-2.869a.75.75 0 01.858-.622zM6.33 6l-.64 4h3.98l.64-4H6.33z"/></svg>
